sprites/basic-v8/_svg/museum-11.svg

<svg viewBox="-1 -1 14 14" width="14" height="14" data-reactid=".0.1.1.$museum-11=1svg74.0.0"><path d="M 5.5 0 L 1 2 L 1 3 L 10 3 L 10 2 L 5.5 0 z M 2 4 L 2 8 L 1 9 L 1 10 L 10 10 L 10 9 L 9 8 L 9 4 L 8.5 4 L 2.5 4 L 2 4 z M 3.4921875 5 A 0.50005 0.50005 0 0 1 3.8535156 5.1464844 L 5.5 6.7929688 L 7.1464844 5.1464844 A 0.50005 0.50005 0 0 1 8 5.5 L 8 8.5 A 0.50005 0.50005 0 1 1 7 8.5 L 7 6.7070312 L 5.8535156 7.8535156 A 0.50005 0.50005 0 0 1 5.1464844 7.8535156 L 4 6.7070312 L 4 8.5 A 0.50005 0.50005 0 1 1 3 8.5 L 3 5.5 A 0.50005 0.50005 0 0 1 3.4921875 5 z " style="stroke-linejoin:round;stroke-miterlimit:4px;" fill="#fff" stroke="#fff" stroke-width="3" data-reactid=".0.1.1.$museum-11=1svg74.0.0.2:$museum-11=1svg-0-fill"></path><path d="m 85.5,0.5 -4,1.5 0,1 8,0 0,-1 z m -3,3.5 -0.5,0 0,4 -0.5,1 0,1 8,0 0,-1 L 89,8 89,4 88.5,4 Z" style="stroke-linejoin:round;stroke-miterlimit:4px;" fill="#fff" stroke="#fff" stroke-width="3" data-reactid=".0.1.1.$museum-11=1svg74.0.0.2:$museum-11=1svg-1-fill"></path><path d="m 83.5,8.5 0,-3 2,2 2,-2 0,3" style="stroke-linejoin:round;stroke-miterlimit:4px;" fill="#fff" stroke="#fff" stroke-width="3" data-reactid=".0.1.1.$museum-11=1svg74.0.0.2:$museum-11=1svg-2-fill"></path><path fill="#49484a" d="M 5.5 0 L 1 2 L 1 3 L 10 3 L 10 2 L 5.5 0 z M 2 4 L 2 8 L 1 9 L 1 10 L 10 10 L 10 9 L 9 8 L 9 4 L 8.5 4 L 2.5 4 L 2 4 z M 3.4921875 5 A 0.50005 0.50005 0 0 1 3.8535156 5.1464844 L 5.5 6.7929688 L 7.1464844 5.1464844 A 0.50005 0.50005 0 0 1 8 5.5 L 8 8.5 A 0.50005 0.50005 0 1 1 7 8.5 L 7 6.7070312 L 5.8535156 7.8535156 A 0.50005 0.50005 0 0 1 5.1464844 7.8535156 L 4 6.7070312 L 4 8.5 A 0.50005 0.50005 0 1 1 3 8.5 L 3 5.5 A 0.50005 0.50005 0 0 1 3.4921875 5 z " data-reactid=".0.1.1.$museum-11=1svg74.0.0.3:$museum-11=1svg-0-fill"></path><path fill="#49484a" d="m 85.5,0.5 -4,1.5 0,1 8,0 0,-1 z m -3,3.5 -0.5,0 0,4 -0.5,1 0,1 8,0 0,-1 L 89,8 89,4 88.5,4 Z" data-reactid=".0.1.1.$museum-11=1svg74.0.0.3:$museum-11=1svg-1-fill"></path><path fill="#49484a" d="m 83.5,8.5 0,-3 2,2 2,-2 0,3" data-reactid=".0.1.1.$museum-11=1svg74.0.0.3:$museum-11=1svg-2-fill"></path></svg>

<svg viewBox="-1 -1 13 13" width="13" height="13" data-reactid=".0.1.1.$museum-11=1svg74.0.0"><path d="M5.5,0L1,2V3h9V2ZM2,4V8L1,9v1h9V9L9,8V4H2ZM3.49,5a0.5,0.5,0,0,1,.36.15L5.5,6.79,7.15,5.15A0.5,0.5,0,0,1,8,5.5v3a0.5,0.5,0,0,1-1,0s0,0,0,0V6.71L5.85,7.85a0.5,0.5,0,0,1-.71,0L4,6.71V8.5a0.5,0.5,0,1,1-1,0s0,0,0,0v-3A0.5,0.5,0,0,1,3.49,5Z" style="stroke-linejoin:round;stroke-miterlimit:4px;" fill="#ffffff" stroke="#ffffff" stroke-width="2" opacity="0.3" data-reactid=".0.1.1.$museum-11=1svg74.0.0.2:$museum-11=1svg-0-fill"></path><path fill="#444" d="M5.5,0L1,2V3h9V2ZM2,4V8L1,9v1h9V9L9,8V4H2ZM3.49,5a0.5,0.5,0,0,1,.36.15L5.5,6.79,7.15,5.15A0.5,0.5,0,0,1,8,5.5v3a0.5,0.5,0,0,1-1,0s0,0,0,0V6.71L5.85,7.85a0.5,0.5,0,0,1-.71,0L4,6.71V8.5a0.5,0.5,0,1,1-1,0s0,0,0,0v-3A0.5,0.5,0,0,1,3.49,5Z" data-reactid=".0.1.1.$museum-11=1svg74.0.0.3:$museum-11=1svg-0-fill"></path></svg>
